UI/src/assets/icons/heroicons/outline/shield-exclamation.svg

<svg width="24" height="24" viewBox="0 0 24 24" fill="none" xmlns="http://www.w3.org/2000/svg">
<path d="M12 9V12.75M12 2.71426C9.8495 4.75089 6.94563 6.00001 3.75 6.00001C3.69922 6.00001 3.64852 5.9997 3.59789 5.99907C3.2099 7.17918 3 8.44011 3 9.75006C3 15.3416 6.82432 20.0399 12 21.372C17.1757 20.0399 21 15.3416 21 9.75006C21 8.44011 20.7901 7.17918 20.4021 5.99907C20.3515 5.9997 20.3008 6.00001 20.25 6.00001C17.0544 6.00001 14.1505 4.75089 12 2.71426ZM12 15.75H12.0075V15.7575H12V15.75Z" stroke="#0F172A" stroke-width="1.5" stroke-linecap="round" stroke-linejoin="round"/>
</svg>

<svg xmlns="http://www.w3.org/2000/svg" fill="none" viewBox="0 0 24 24" stroke-width="1.5" stroke="currentColor" class="w-6 h-6">
  <path stroke-linecap="round" stroke-linejoin="round" d="M12 9v3.75m0-10.036A11.959 11.959 0 0 1 3.598 6 11.99 11.99 0 0 0 3 9.75c0 5.592 3.824 10.29 9 11.622 5.176-1.332 9-6.03 9-11.622 0-1.31-.21-2.57-.598-3.75h-.152c-3.196 0-6.1-1.25-8.25-3.286Zm0 13.036h.008v.008H12v-.008Z" />
</svg>
